; generated by Slic3r 0.9.9 on 2013-04-21 at 10:28:58

; layer_height = 0.29
; perimeters = 3
; top_solid_layers = 3
; bottom_solid_layers = 3
; fill_density = .3
; perimeter_speed = 25
; infill_speed = 25
; travel_speed = 25
; nozzle_diameter = 0.35
; filament_diameter = 2.85
; extrusion_multiplier = 0.8
; perimeters extrusion width = 0.37mm
; infill extrusion width = 0.37mm
; solid infill extrusion width = 0.37mm
; top infill extrusion width = 0.37mm
; first layer extrusion width = 0.58mm

G21 ; set units to millimeters
M190 S90 ; wait for bed temperature to be reached
M104 S230 ; set temperature
M80
G28 ; home all axes
M109 S230 ; wait for temperature to be reached
G90 ; use absolute coordinates
G92 E0
M82 ; use absolute distances for extrusion
G1 F600.000 E-2.50000
G92 E0
G1 Z0.290 F1500.000
G1 X84.800 Y100.760
G1 F600.000 E2.50000
G1 X85.270 Y100.390 F600.000 E2.51154
G1 X85.770 Y100.070 E2.52300
G1 X86.020 Y99.920 E2.52863
G1 X86.820 Y99.520 E2.54589
G1 X87.660 Y99.220 E2.56310
G1 X88.230 Y99.070 E2.57447
G1 X88.820 Y98.960 E2.58606
G1 X89.700 Y98.880 E2.60311
G1 X100.300 Y98.880 E2.80766
G1 X101.180 Y98.960 E2.82472
G1 X101.770 Y99.070 E2.83630
G1 X102.340 Y99.220 E2.84767
G1 X103.180 Y99.520 E2.86489
G1 X103.980 Y99.920 E2.88215
G1 X104.730 Y100.390 E2.89923
G1 X105.420 Y100.950 E2.91638
G1 X105.850 Y101.360 E2.92784
G1 X106.240 Y101.800 E2.93919
G1 X106.610 Y102.270 E2.95073
G1 X107.080 Y103.020 E2.96781
G1 X107.350 Y103.550 E2.97929
G1 X107.590 Y104.100 E2.99087
G1 X107.780 Y104.660 E3.00228
G1 X107.930 Y105.230 E3.01366
G1 X108.040 Y105.820 E3.02524
G1 X108.120 Y106.700 E3.04229
G1 X108.120 Y117.300 E3.24685
G1 X108.040 Y118.180 E3.26390
G1 X107.930 Y118.770 E3.27548
G1 X107.780 Y119.340 E3.28686
G1 X107.480 Y120.180 E3.30407
G1 X107.080 Y120.980 E3.32133
G1 X106.610 Y121.730 E3.33841
G1 X106.050 Y122.420 E3.35556
G1 X105.640 Y122.850 E3.36703
G1 X105.200 Y123.240 E3.37837
G1 X104.730 Y123.610 E3.38992
G1 X103.980 Y124.080 E3.40700
G1 X103.450 Y124.350 E3.41848
G1 X102.900 Y124.590 E3.43006
G1 X102.340 Y124.780 E3.44147
G1 X101.770 Y124.930 E3.45284
G1 X101.180 Y125.040 E3.46442
G1 X100.300 Y125.120 E3.48148
G1 X89.700 Y125.120 E3.68603
G1 X88.820 Y125.040 E3.70309
G1 X88.230 Y124.930 E3.71467
G1 X87.660 Y124.780 E3.72604
G1 X86.820 Y124.480 E3.74325
G1 X86.020 Y124.080 E3.76052
G1 X85.270 Y123.610 E3.77760
G1 X84.580 Y123.050 E3.79474
G1 X84.150 Y122.640 E3.80621
G1 X83.760 Y122.200 E3.81756
G1 X83.390 Y121.730 E3.82910
G1 X82.920 Y120.980 E3.84618
G1 X82.650 Y120.450 E3.85766
G1 X82.410 Y119.900 E3.86924
G1 X82.220 Y119.340 E3.88065
G1 X82.070 Y118.770 E3.89203
G1 X81.960 Y118.180 E3.90361
G1 X81.880 Y117.300 E3.92066
G1 X81.880 Y106.700 E4.12522
G1 X81.960 Y105.820 E4.14227
G1 X82.070 Y105.230 E4.15385
G1 X82.310 Y104.380 E4.17090
G1 X82.520 Y103.820 E4.18244
G1 X82.650 Y103.550 E4.18822
G1 X82.920 Y103.020 E4.19970
G1 X83.390 Y102.270 E4.21678
G1 X83.760 Y101.800 E4.22832
G1 X84.150 Y101.360 E4.23967
G1 X84.740 Y100.812 E4.25521
G1 X85.050 Y101.250 F1500.000
G1 X85.490 Y100.890 F600.000 E4.26618
G1 X85.960 Y100.570 E4.27715
G1 X86.450 Y100.290 E4.28804
G1 X86.960 Y100.040 E4.29900
G1 X87.490 Y99.830 E4.31000
G1 X87.760 Y99.750 E4.31544
G1 X88.310 Y99.600 E4.32644
G1 X88.870 Y99.490 E4.33745
G1 X89.720 Y99.410 E4.35393
G1 X100.280 Y99.410 E4.55771
G1 X101.130 Y99.490 E4.57419
G1 X101.690 Y99.600 E4.58520
G1 X102.510 Y99.830 E4.60164
G1 X103.040 Y100.040 E4.61264
G1 X103.550 Y100.290 E4.62360
G1 X104.040 Y100.570 E4.63449
G1 X104.280 Y100.730 E4.64006
G1 X104.730 Y101.060 E4.65082
G1 X105.370 Y101.630 E4.66736
G1 X105.940 Y102.270 E4.68390
G1 X106.270 Y102.720 E4.69467
G1 X106.430 Y102.960 E4.70024
G1 X106.710 Y103.450 E4.71113
G1 X106.960 Y103.960 E4.72209
G1 X107.170 Y104.490 E4.73309
G1 X107.400 Y105.310 E4.74953
G1 X107.510 Y105.870 E4.76054
G1 X107.590 Y106.720 E4.77702
G1 X107.590 Y117.280 E4.98080
G1 X107.510 Y118.130 E4.99728
G1 X107.400 Y118.690 E5.00829
G1 X107.170 Y119.510 E5.02472
G1 X106.960 Y120.040 E5.03573
G1 X106.710 Y120.550 E5.04669
G1 X106.430 Y121.040 E5.05758
G1 X106.110 Y121.510 E5.06855
G1 X105.940 Y121.730 E5.07392
G1 X105.370 Y122.370 E5.09045
G1 X104.730 Y122.940 E5.10699
G1 X104.280 Y123.270 E5.11776
G1 X104.040 Y123.430 E5.12333
G1 X103.550 Y123.710 E5.13422
G1 X103.040 Y123.960 E5.14518
G1 X102.510 Y124.170 E5.15618
G1 X101.690 Y124.400 E5.17262
G1 X101.130 Y124.510 E5.18363
G1 X100.280 Y124.590 E5.20011
G1 X89.720 Y124.590 E5.40389
G1 X88.870 Y124.510 E5.42037
G1 X88.310 Y124.400 E5.43138
G1 X87.490 Y124.170 E5.44782
G1 X86.960 Y123.960 E5.45882
G1 X86.450 Y123.710 E5.46978
G1 X85.960 Y123.430 E5.48067
G1 X85.490 Y123.110 E5.49164
G1 X85.270 Y122.940 E5.49701
G1 X84.630 Y122.370 E5.51355
G1 X84.430 Y122.160 E5.51914
G1 X83.890 Y121.510 E5.53545
G1 X83.570 Y121.040 E5.54642
G1 X83.290 Y120.550 E5.55731
G1 X83.040 Y120.040 E5.56827
G1 X82.830 Y119.510 E5.57928
G1 X82.600 Y118.690 E5.59571
G1 X82.490 Y118.130 E5.60672
G1 X82.410 Y117.280 E5.62320
G1 X82.410 Y106.720 E5.82699
G1 X82.490 Y105.870 E5.84346
G1 X82.600 Y105.310 E5.85447
G1 X82.830 Y104.490 E5.87091
G1 X83.040 Y103.960 E5.88191
G1 X83.430 Y103.200 E5.89840
G1 X83.570 Y102.960 E5.90376
G1 X83.890 Y102.490 E5.91473
G1 X84.430 Y101.840 E5.93104
G1 X84.630 Y101.630 E5.93663
G1 X84.990 Y101.302 E5.94603
G1 X85.410 Y101.630 F1500.000
G1 X85.850 Y101.290 F600.000 E5.95676
G1 X86.310 Y100.980 E5.96746
G1 X87.040 Y100.590 E5.98344
G1 X87.820 Y100.280 E5.99963
G1 X88.080 Y100.200 E6.00488
G1 X88.620 Y100.070 E6.01560
G1 X89.170 Y99.990 E6.02633
G1 X89.720 Y99.940 E6.03698
G1 X100.280 Y99.940 E6.24077
G1 X100.830 Y99.990 E6.25143
G1 X101.380 Y100.070 E6.26215
G1 X101.650 Y100.130 E6.26749
G1 X102.180 Y100.280 E6.27812
G1 X102.960 Y100.590 E6.29432
G1 X103.690 Y100.980 E6.31029
G1 X104.150 Y101.290 E6.32099
G1 X104.590 Y101.630 E6.33173
G1 X105.190 Y102.210 E6.34783
G1 X105.550 Y102.630 E6.35850
G1 X105.870 Y103.080 E6.36916
G1 X106.160 Y103.550 E6.37982
G1 X106.410 Y104.040 E6.39043
G1 X106.720 Y104.820 E6.40663
G1 X106.800 Y105.080 E6.41188
G1 X106.930 Y105.620 E6.42260
G1 X107.010 Y106.170 E6.43332
G1 X107.060 Y106.720 E6.44398
G1 X107.060 Y117.280 E6.64777
G1 X107.010 Y117.830 E6.65843
G1 X106.930 Y118.380 E6.66915
G1 X106.870 Y118.650 E6.67449
G1 X106.720 Y119.180 E6.68512
G1 X106.410 Y119.960 E6.70132
G1 X106.020 Y120.690 E6.71729
G1 X105.710 Y121.150 E6.72799
G1 X105.370 Y121.590 E6.73872
G1 X104.790 Y122.190 E6.75483
G1 X104.370 Y122.550 E6.76550
G1 X103.920 Y122.870 E6.77616
G1 X103.450 Y123.160 E6.78682
G1 X102.960 Y123.410 E6.79743
G1 X102.180 Y123.720 E6.81363
G1 X101.920 Y123.800 E6.81888
G1 X101.380 Y123.930 E6.82960
G1 X100.830 Y124.010 E6.84032
G1 X100.280 Y124.060 E6.85098
G1 X89.720 Y124.060 E7.05477
G1 X89.170 Y124.010 E7.06542
G1 X88.620 Y123.930 E7.07615
G1 X88.350 Y123.870 E7.08149
G1 X87.820 Y123.720 E7.09212
G1 X87.040 Y123.410 E7.10831
G1 X86.310 Y123.020 E7.12429
G1 X85.850 Y122.710 E7.13499
G1 X85.410 Y122.370 E7.14572
G1 X84.810 Y121.790 E7.16183
G1 X84.450 Y121.370 E7.17250
G1 X84.130 Y120.920 E7.18316
G1 X83.840 Y120.450 E7.19381
G1 X83.590 Y119.960 E7.20443
G1 X83.280 Y119.180 E7.22063
G1 X83.200 Y118.920 E7.22588
G1 X83.070 Y118.380 E7.23660
G1 X82.990 Y117.830 E7.24732
G1 X82.940 Y117.280 E7.25798
G1 X82.940 Y106.720 E7.46176
G1 X82.990 Y106.170 E7.47242
G1 X83.070 Y105.620 E7.48315
G1 X83.130 Y105.350 E7.48848
G1 X83.280 Y104.820 E7.49911
G1 X83.590 Y104.040 E7.51531
G1 X83.980 Y103.310 E7.53128
G1 X84.450 Y102.630 E7.54724
G1 X84.810 Y102.210 E7.55791
G1 X85.351 Y101.683 E7.57248
G1 X85.670 Y102.110 F1500.000
G1 X86.080 Y101.780 F600.000 E7.58264
G1 X86.730 Y101.340 E7.59778
G1 X87.440 Y100.990 E7.61306
G1 X87.680 Y100.890 E7.61808
G1 X88.440 Y100.660 E7.63340
G1 X88.950 Y100.550 E7.64347
G1 X89.470 Y100.490 E7.65357
G1 X89.740 Y100.470 E7.65879
G1 X100.260 Y100.470 E7.86181
G1 X101.050 Y100.550 E7.87713
G1 X101.310 Y100.600 E7.88224
G1 X101.820 Y100.730 E7.89240
G1 X102.320 Y100.890 E7.90253
G1 X102.560 Y100.990 E7.90755
G1 X103.270 Y101.340 E7.92282
G1 X103.710 Y101.630 E7.93299
G1 X104.130 Y101.940 E7.94307
G1 X104.710 Y102.480 E7.95836
G1 X105.060 Y102.870 E7.96847
G1 X105.370 Y103.290 E7.97854
G1 X105.660 Y103.730 E7.98871
G1 X105.900 Y104.200 E7.99890
G1 X106.110 Y104.680 E8.00901
G1 X106.270 Y105.180 E8.01914
G1 X106.450 Y105.950 E8.03440
G1 X106.530 Y106.740 E8.04972
G1 X106.530 Y117.260 E8.25274
G1 X106.450 Y118.050 E8.26806
G1 X106.400 Y118.310 E8.27317
G1 X106.270 Y118.820 E8.28333
G1 X106.110 Y119.320 E8.29346
G1 X106.010 Y119.560 E8.29847
G1 X105.660 Y120.270 E8.31375
G1 X105.370 Y120.710 E8.32392
G1 X105.060 Y121.130 E8.33399
G1 X104.520 Y121.710 E8.34929
G1 X104.130 Y122.060 E8.35940
G1 X103.710 Y122.370 E8.36947
G1 X103.270 Y122.660 E8.37964
G1 X102.800 Y122.900 E8.38983
G1 X102.320 Y123.110 E8.39994
G1 X101.820 Y123.270 E8.41007
G1 X101.050 Y123.450 E8.42533
G1 X100.260 Y123.530 E8.44065
G1 X89.740 Y123.530 E8.64366
G1 X88.950 Y123.450 E8.65899
G1 X88.690 Y123.400 E8.66410
G1 X88.180 Y123.270 E8.67425
G1 X87.680 Y123.110 E8.68439
G1 X87.440 Y123.010 E8.68940
G1 X86.730 Y122.660 E8.70468
G1 X86.290 Y122.370 E8.71485
G1 X85.870 Y122.060 E8.72492
G1 X85.290 Y121.520 E8.74021
G1 X84.940 Y121.130 E8.75033
G1 X84.630 Y120.710 E8.76040
G1 X84.340 Y120.270 E8.77057
G1 X84.100 Y119.800 E8.78075
G1 X83.890 Y119.320 E8.79087
G1 X83.730 Y118.820 E8.80100
G1 X83.550 Y118.050 E8.81626
G1 X83.470 Y117.260 E8.83158
G1 X83.470 Y106.740 E9.03459
G1 X83.550 Y105.950 E9.04992
G1 X83.660 Y105.440 E9.05998
G1 X83.890 Y104.680 E9.07531
G1 X84.100 Y104.200 E9.08542
G1 X84.340 Y103.730 E9.09560
G1 X84.780 Y103.080 E9.11075
G1 X85.110 Y102.670 E9.12091
G1 X85.612 Y102.165 E9.13465
G1 F600.000 E6.63465
G92 E0
G1 X98.673 Y108.327 F1500.000
G1 F600.000 E2.50000
G1 X98.673 Y115.673 F600.000 E2.64178
G1 X91.327 Y115.673 E2.78356
G1 X91.327 Y108.327 E2.92533
G1 X98.594 Y108.327 E3.06557
G1 X99.204 Y107.796 F1500.000
G1 X99.204 Y116.204 F600.000 E3.22783
G1 X90.796 Y116.204 E3.39009
G1 X90.796 Y107.796 E3.55235
G1 X99.124 Y107.796 E3.71307
G1 X99.735 Y107.265 F1500.000
G1 X99.735 Y116.735 F600.000 E3.89581
G1 X90.265 Y116.735 E4.07855
G1 X90.265 Y107.265 E4.26129
G1 X99.655 Y107.265 E4.44249
G1 X99.469 Y107.725 F1500.000
G1 X98.289 Y108.711
G1 X97.515 Y108.711 F600.000 E4.45789
G1 X98.289 Y109.485 E4.47967
G1 X98.289 Y110.259 E4.49507
G1 X96.741 Y108.711 E4.53863
G1 X95.967 Y108.711 E4.55403
G1 X98.289 Y111.033 E4.61936
G1 X98.289 Y111.807 E4.63476
G1 X95.193 Y108.711 E4.72187
G1 X94.420 Y108.711 E4.73726
G1 X98.289 Y112.580 E4.84615
G1 X98.289 Y113.354 E4.86155
G1 X93.646 Y108.711 E4.99221
G1 X92.872 Y108.711 E5.00761
G1 X98.289 Y114.128 E5.16005
G1 X98.289 Y114.902 E5.17544
G1 X92.098 Y108.711 E5.34966
G1 X91.711 Y109.098 E5.36055
G1 X97.902 Y115.289 E5.53476
G1 X97.128 Y115.289 E5.55016
G1 X91.711 Y109.872 E5.70260
G1 X91.711 Y110.646 E5.71800
G1 X96.354 Y115.289 E5.84866
G1 X95.580 Y115.289 E5.86406
G1 X91.711 Y111.420 E5.97294
G1 X91.711 Y112.193 E5.98834
G1 X94.807 Y115.289 E6.07545
G1 X94.033 Y115.289 E6.09085
G1 X91.711 Y112.967 E6.15618
G1 X91.711 Y113.741 E6.17158
G1 X93.259 Y115.289 E6.21514
G1 X92.485 Y115.289 E6.23054
G1 X91.711 Y114.515 E6.25232
G1 X91.711 Y115.289 E6.26772
G1 F600.000 E3.76772
G92 E0
G1 Z0.580 F1500.000
G1 X99.091 Y107.909
G1 F600.000 E2.50000
G1 X99.091 Y116.091 F1500.000 E2.60822
G1 X90.909 Y116.091 E2.71645
G1 X90.909 Y107.909 E2.82467
G1 X99.036 Y107.909 E2.93218
G1 X99.454 Y107.546 F1500.000
G1 X99.454 Y116.454 F1500.000 E3.05002
G1 X90.546 Y116.454 E3.16787
G1 X90.546 Y107.546 E3.28572
G1 X99.400 Y107.546 E3.40285
G1 X99.818 Y107.182 F1500.000
G1 X99.818 Y116.818 F1500.000 E3.53032
G1 X90.182 Y116.818 E3.65779
G1 X90.182 Y107.182 E3.78526
G1 X99.764 Y107.182 E3.91201
G1 X99.636 Y107.497 F1500.000
G1 F600.000 E1.41201
G92 E0
G1 X98.827 Y115.827 F1500.000
G1 F600.000 E2.50000
G1 X98.299 Y115.827 F1500.000 E2.50717
G1 X98.827 Y115.299 E2.51730
G1 X98.827 Y114.771 E2.52447
G1 X97.771 Y115.827 E2.54474
G1 X97.243 Y115.827 E2.55190
G1 X98.827 Y114.243 E2.58231
G1 X98.827 Y113.715 E2.58947
G1 X96.715 Y115.827 E2.63001
G1 X96.188 Y115.827 E2.63717
G1 X98.827 Y113.188 E2.68784
G1 X98.827 Y112.660 E2.69501
G1 X95.660 Y115.827 E2.75581
G1 X95.132 Y115.827 E2.76297
G1 X98.827 Y112.132 E2.83391
G1 X98.827 Y111.604 E2.84107
G1 X94.604 Y115.827 E2.92214
G1 X94.076 Y115.827 E2.92931
G1 X98.827 Y111.076 E3.02051
G1 X98.827 Y110.548 E3.02767
G1 X93.548 Y115.827 E3.12901
G1 X93.020 Y115.827 E3.13617
G1 X98.827 Y110.020 E3.24764
G1 X98.827 Y109.493 E3.25480
G1 X92.493 Y115.827 E3.37640
G1 X91.965 Y115.827 E3.38357
G1 X98.827 Y108.965 E3.51530
G1 X98.827 Y108.437 E3.52247
G1 X91.437 Y115.827 E3.66433
G1 X91.173 Y115.563 E3.66940
G1 X98.563 Y108.173 E3.81126
G1 X98.035 Y108.173 E3.81843
G1 X91.173 Y115.035 E3.95016
G1 X91.173 Y114.507 E3.95733
G1 X97.507 Y108.173 E4.07892
G1 X96.980 Y108.173 E4.08609
G1 X91.173 Y113.980 E4.19756
G1 X91.173 Y113.452 E4.20472
G1 X96.452 Y108.173 E4.30605
G1 X95.924 Y108.173 E4.31322
G1 X91.173 Y112.924 E4.40442
G1 X91.173 Y112.396 E4.41159
G1 X95.396 Y108.173 E4.49265
G1 X94.868 Y108.173 E4.49982
G1 X91.173 Y111.868 E4.57075
G1 X91.173 Y111.340 E4.57792
G1 X94.340 Y108.173 E4.63872
G1 X93.812 Y108.173 E4.64588
G1 X91.173 Y110.812 E4.69655
G1 X91.173 Y110.285 E4.70372
G1 X93.285 Y108.173 E4.74425
G1 X92.757 Y108.173 E4.75142
G1 X91.173 Y109.757 E4.78182
G1 X91.173 Y109.229 E4.78899
G1 X92.229 Y108.173 E4.80926
G1 X91.701 Y108.173 E4.81642
G1 X91.173 Y108.701 E4.82656
G1 X91.173 Y108.173 E4.83372
G1 F600.000 E2.33372
G92 E0
G1 Z0.870 F1500.000
G1 X99.091 Y116.091
G1 F600.000 E2.50000
G1 X90.909 Y116.091 F1500.000 E2.60822
G1 X90.909 Y107.909 E2.71645
G1 X99.091 Y107.909 E2.82467
G1 X99.091 Y116.036 E2.93218
G1 X99.454 Y116.454 F1500.000
G1 X90.546 Y116.454 F1500.000 E3.05002
G1 X90.546 Y107.546 E3.16787
G1 X99.454 Y107.546 E3.28572
G1 X99.454 Y116.400 E3.40285
G1 X99.818 Y116.818 F1500.000
G1 X90.182 Y116.818 F1500.000 E3.53032
G1 X90.182 Y107.182 E3.65779
G1 X99.818 Y107.182 E3.78526
G1 X99.818 Y116.764 E3.91201
G1 X99.503 Y116.636 F1500.000
G1 F600.000 E1.41201
G92 E0
G1 X91.173 Y115.827 F1500.000
G1 F600.000 E2.50000
G1 X91.173 Y115.299 F1500.000 E2.50717
G1 X91.701 Y115.827 E2.51730
G1 X92.229 Y115.827 E2.52447
G1 X91.173 Y114.771 E2.54474
G1 X91.173 Y114.243 E2.55190
G1 X92.757 Y115.827 E2.58231
G1 X93.285 Y115.827 E2.58947
G1 X91.173 Y113.715 E2.63001
G1 X91.173 Y113.188 E2.63717
G1 X93.812 Y115.827 E2.68784
G1 X94.340 Y115.827 E2.69501
G1 X91.173 Y112.660 E2.75581
G1 X91.173 Y112.132 E2.76297
G1 X94.868 Y115.827 E2.83391
G1 X95.396 Y115.827 E2.84107
G1 X91.173 Y111.604 E2.92214
G1 X91.173 Y111.076 E2.92931
G1 X95.924 Y115.827 E3.02051
G1 X96.452 Y115.827 E3.02767
G1 X91.173 Y110.548 E3.12901
G1 X91.173 Y110.020 E3.13617
G1 X96.980 Y115.827 E3.24764
G1 X97.507 Y115.827 E3.25480
G1 X91.173 Y109.493 E3.37640
G1 X91.173 Y108.965 E3.38357
G1 X98.035 Y115.827 E3.51530
G1 X98.563 Y115.827 E3.52247
G1 X91.173 Y108.437 E3.66433
G1 X91.437 Y108.173 E3.66940
G1 X98.827 Y115.563 E3.81126
G1 X98.827 Y115.035 E3.81843
G1 X91.965 Y108.173 E3.95016
G1 X92.493 Y108.173 E3.95733
G1 X98.827 Y114.507 E4.07892
G1 X98.827 Y113.980 E4.08609
G1 X93.020 Y108.173 E4.19756
G1 X93.548 Y108.173 E4.20472
G1 X98.827 Y113.452 E4.30605
G1 X98.827 Y112.924 E4.31322
G1 X94.076 Y108.173 E4.40442
G1 X94.604 Y108.173 E4.41159
G1 X98.827 Y112.396 E4.49265
G1 X98.827 Y111.868 E4.49982
G1 X95.132 Y108.173 E4.57075
G1 X95.660 Y108.173 E4.57792
